X: 1
B: Cole's 1000 Fiddle Tunes
T:BLACK-EYED LASSIE -- REEL., THE
R:reel
C:SCOTCH.
B:Coles 43.1
Z:John Walsh <walsh:mat:h.ubc.ca>
M:C|
L:1/8
Z: Contributed 20000514052954 by John Walsh walsh:mat:h.ubc.ca
K:Bb
uA|vB2 (d/c/B) fBbB|B2 (d/c/B) AFcA|B2 (d/c/B) fBbB|cAFA BGGA|
B2 (d/c/B) fBbB|B2 (d/c/B) AFcA|B2 (d/c/B) fBbB|cAFA BGG|]
uB|DGBG dGBG|DGBG AFcA|DGBG dGBG|cAFA BGGB|
DGBG dGBG|DGBG AFcA|DGBG dGBG|cAFA BGG|]

